!!!COM: Palestrina, Giovanni Perluigi da
!!!OPR: Te Deum laudamus
!!!OTL: Sanctus
**kern	**kern	**kern	**kern	**kern	**kern
*Ibass	*Itenor	*Itenor	*Icalto	*Icalto	*Icant
!Bassus	!Tenor 2	!Tenor 1	!Altus 2	!Altus 1	!Cantus
*clefF4	*clefGv2	*clefGv2	*clefG2	*clefG2	*clefG2
*k[]	*k[]	*k[]	*k[]	*k[]	*k[]
*A:aeo	*A:aeo	*A:aeo	*A:aeo	*A:aeo	*A:aeo
*M4/2	*M4/2	*M4/2	*M4/2	*M4/2	*M4/2
=1	=1	=1	=1	=1	=1
0r	0E	1r	0r	0r	0r
.	.	[1e	.	.	.
=2	=2	=2	=2	=2	=2
0r	1G	2e]	0r	0r	0r
.	.	2d	.	.	.
.	1A	2c	.	.	.
.	.	2A	.	.	.
=3	=3	=3	=3	=3	=3
0r	1A	1c	0r	1.e	0r
.	1G	1B	.	.	.
.	.	.	.	2d	.
=4	=4	=4	=4	=4	=4
0r	1A	2A	1r	2c	0e
.	.	4c	.	2A	.
.	.	4B	.	.	.
.	1r	4A	[1e	1c	.
.	.	4G	.	.	.
.	.	2A	.	.	.
=5	=5	=5	=5	=5	=5
0r	1r	1E	2e]	1B	1g
.	.	.	2d	.	.
.	2.e	[1A	2c	4A	1a
.	.	.	.	4B	.
.	.	.	2A	4c	.
.	4d	.	.	4d	.
=6	=6	=6	=6	=6	=6
0r	4c	1A]	1c	0e	1a
.	4B	.	.	.	.
.	2A	.	.	.	.
.	1E	2r	1B	.	1g
.	.	[2e	.	.	.
=7	=7	=7	=7	=7	=7
1.A	4A	4e]	2A	0r	2.a
.	4B	4d	.	.	.
.	4c	4c	2e	.	.
.	4d	4B	.	.	4b
.	1e	2A	4c	.	2cc
.	.	.	4d	.	.
2G	.	2B	4e	.	2b
.	.	.	8d	.	.
.	.	.	8e	.	.
=8	=8	=8	=8	=8	=8
2F	0r	2c	1.f	0A	1a
2D	.	2d	.	.	.
1F	.	2c	.	.	2r
.	.	2A	2d	.	[2a
=9	=9	=9	=9	=9	=9
1E	1r	2r	1e	1c	2a]
.	.	2E	.	.	2g
[1D	2.A	2.F	1r	1d	2f
.	.	.	.	.	2d
.	4G	4G	.	.	.
=10	=10	=10	=10	=10	=10
1D]	4F	1A	1.a	1d	1f
.	4E	.	.	.	.
.	2D	.	.	.	.
1r	1A	1r	.	1c	1e
.	.	.	2g	.	.
=11	=11	=11	=11	=11	=11
0r	1.D	0r	2f	1.d	4d
.	.	.	.	.	4e
.	.	.	2d	.	4f
.	.	.	.	.	4g
.	.	.	2f	.	4a
.	.	.	.	.	4b
.	2C	.	2e	2e	2cc
=12	=12	=12	=12	=12	=12
1r	1D	0r	2.d	1f	4b
.	.	.	.	.	4a
.	.	.	.	.	1a
.	.	.	4c	.	.
2r	1E	.	[1B	[1e	.
[2E	.	.	.	.	4g#
.	.	.	.	.	4f#
=13	=13	=13	=13	=13	=13
2E]	0r	1r	2B]	2e]	2g#
2D	.	.	2d	2.A	2a
2C	.	[1E	2e	.	2.cc
.	.	.	.	4B	.
2AA	.	.	[2c	4c	.
.	.	.	.	4d	8b
.	.	.	.	.	8a
=14	=14	=14	=14	=14	=14
1C	2r	1E]	4c]	1e	1g
.	.	.	4B	.	.
.	1e	.	4G	.	.
.	.	.	4A	.	.
1BB	.	1G	1B	1r	1r
.	2d	.	.	.	.
=15	=15	=15	=15	=15	=15
0AA	2c	1A	2.e	0r	1r
.	2A	.	.	.	.
.	.	.	4d	.	.
.	1c	1A	2c	.	[1ee
.	.	.	2A	.	.
=16	=16	=16	=16	=16	=16
1E	1B	1G	1B	1e	2ee]
.	.	.	.	.	2dd
[1AA	2.A	[1A	2.c	4e	2cc
.	.	.	.	4d	.
.	.	.	.	4c	2a
.	8G	.	4d	4B	.
.	8F	.	.	.	.
=17	=17	=17	=17	=17	=17
2AA]	[0E	2A]	0e	2A	2cc
2E	.	2B	.	2G	2.b
2C	.	1c	.	1A	.
.	.	.	.	.	4a
2AA	.	.	.	.	[2a
=18	=18	=18	=18	=18	=18
0E	1E]	0B	0e	2B	2a]
.	.	.	.	2.e	4g#
.	.	.	.	.	4f#
.	2r	.	.	.	1g#
.	.	.	.	4d	.
.	[2E	.	.	2B	.
=19	=19	=19	=19	=19	=19
2AA	4E]	1A	2e	2c#	0a
.	4E	.	.	.	.
2.AA	2E	.	2.c#	2.e	.
.	2.A	2r	.	.	.
4AA	.	.	4c#	4e	.
2AA	.	[2A	2c#	2e	.
.	4G	.	.	.	.
=20	=20	=20	=20	=20	=20
1D	4F	4A]	0d	1f	0r
.	4D	4A	.	.	.
.	2F	2A	.	.	.
1GG	1G	1B	.	2d	.
.	.	.	.	[2g	.
=21	=21	=21	=21	=21	=21
2.C	2.E	2G	1c	4g]	0r
.	.	.	.	4f	.
.	.	1c	.	1e	.
4D	4F	.	.	.	.
4E	2G	.	1r	.	.
4F	.	.	.	.	.
[2G	2G	2B	.	2d	.
=22	=22	=22	=22	=22	=22
2G]	1.D	0A	1r	0d	2r
4F#	.	.	.	.	2.a
4E	.	.	.	.	.
2F#	.	.	2r	.	.
.	.	.	.	.	4a
2F#	2d	.	[2d	.	2a
=23	=23	=23	=23	=23	=23
1G	2B	1G	4d]	0r	1b
.	.	.	4d	.	.
.	2B	.	2d	.	.
1r	1c	1r	1e	.	2g
.	.	.	.	.	[2cc
=24	=24	=24	=24	=24	=24
0r	2A	0r	2c	0r	2cc]
.	1d	.	1f	.	2b
.	.	.	.	.	2.a
.	2c	.	[2e	.	.
.	.	.	.	.	4g
=25	=25	=25	=25	=25	=25
0r	2d	0r	4e]	0r	2f
.	.	.	4d	.	.
.	2B-	.	1d	.	4e
.	.	.	.	.	4d
.	1A	.	.	.	1e
.	.	.	2c#	.	.
=26	=26	=26	=26	=26	=26
2r	1D	2.A	1d	2r	1.f#
2.D	.	.	.	2.d	.
.	.	4A	.	.	.
.	1r	2A	1r	.	.
4D	.	.	.	4d	.
2D	.	[2B	.	2d	2f#
=27	=27	=27	=27	=27	=27
1E	2.G	2B]	0r	2B	1g
.	.	2G	.	2c	.
.	4G	.	.	.	.
2C	2G	2.c	.	2e	1r
[2F	2A	.	.	2c	.
.	.	4B	.	.	.
=28	=28	=28	=28	=28	=28
2F]	2F	2A	0r	1c	0r
2E	1c	2G	.	.	.
1D	.	2A	.	[1f	.
.	2B	2B	.	.	.
=29	=29	=29	=29	=29	=29
1C	2A	2.c	1r	2f]	1r
.	1G	.	.	2e	.
.	.	4B	.	.	.
1D	.	1A	2r	2.d	1a
.	2F#	.	[2d	.	.
.	.	.	.	4c	.
=30	=30	=30	=30	=30	=30
2GG	1G	2r	4d]	4B	2b
.	.	.	4d	4A	.
2GG	.	2.G	2d	4G	2b
.	.	.	.	4F	.
1C	1r	.	1e	2E	1cc
.	.	4G	.	.	.
.	.	2G	.	[2e	.
=31	=31	=31	=31	=31	=31
1AA	1r	1A	2c	2e]	1cc
.	.	.	1f	2c	.
1C	2r	2G	.	1c	1r
.	[2G	2c	2e	.	.
=32	=32	=32	=32	=32	=32
2.D	2G]	2B	0d	0r	0r
.	2F	1A	.	.	.
4C	.	.	.	.	.
1BB	1D	.	.	.	.
.	.	2G#	.	.	.
=33	=33	=33	=33	=33	=33
1AA	1E	0A	2c#	1r	2r
.	.	.	2e	.	2.a
1D	2D	.	2f#	2r	.
.	.	.	.	.	4a
.	2d	.	2f#	[2d	2a
=34	=34	=34	=34	=34	=34
2GG	2B	0G	1g	4d]	1b
.	.	.	.	4d	.
4G	1B	.	.	2d	.
4F	.	.	.	.	.
4E	.	.	1g	1e	2g
4D	.	.	.	.	.
4C	[2e	.	.	.	[2cc
4BB	.	.	.	.	.
=35	=35	=35	=35	=35	=35
2AA	2e]	0r	0r	2c	2cc]
2BB	2d	.	.	2d	2b
1C	2c	.	.	1e	2a
.	2B	.	.	.	[2g
=36	=36	=36	=36	=36	=36
0D	1A	2r	1r	0d	2g]
.	.	2.A	.	.	4f#
.	.	.	.	.	4e
.	1r	.	2r	.	1f#
.	.	4A	.	.	.
.	.	2A	[2d	.	.
=37	=37	=37	=37	=37	=37
1GG	1G	1B	4d]	1r	[0g
.	.	.	4d	.	.
.	.	.	2d	.	.
1C	1E	2G	1e	1c	.
.	.	[2c	.	.	.
=38	=38	=38	=38	=38	=38
1GG	2.G	2c]	2d	2d	0g]
.	.	2B	2.g	2d	.
.	4F	.	.	.	.
[1C	4E	2.c	.	2e	.
.	4D	.	4f	.	.
.	4C	.	4e	2c	.
.	4D	8B	4d	.	.
.	.	8A	.	.	.
=39	=39	=39	=39	=39	=39
1C]	1.E	0G	1c	4g	[0g
.	.	.	.	4f	.
.	.	.	.	4e	.
.	.	.	.	4d	.
1C	.	.	1e	2c	.
.	2C	.	.	2c	.
=40	=40	=40	=40	=40	=40
0GG	0D	0G	0d	0B	0g]
*	*	*	*	*-	*-
!! Pleni
*Itenor	*Itenor	*Icalto	*Icalto
!Tenor 2	!Tenor 1	!Altus 2	!Altus 1
*clefGv2	*clefGv2	*clefG2	*clefG2
*k[]	*k[]	*k[]	*k[]
*A:aeo	*A:aeo	*A:aeo	*A:aeo
*M4/2	*M4/2	*M4/2	*M4/2
=41	=41	=41	=41
0r	0r	1f	0r
.	.	2f	.
.	.	2f	.
=42	=42	=42	=42
0r	0r	1f	0r
.	.	2e	.
.	.	2d	.
=43	=43	=43	=43
0r	1c	1e	0r
.	2c	4A	.
.	.	4B	.
.	2c	4c	.
.	.	4d	.
=44	=44	=44	=44
0r	1c	4e	0r
.	.	4d	.
.	.	4e	.
.	.	4f	.
.	2B	2g	.
.	2A	[2a	.
=45	=45	=45	=45
1r	1B	2a]	0r
.	.	2g#	.
1F	1A	1a	.
=46	=46	=46	=46
2F	4D	2r	0r
.	4E	.	.
2F	4F	2.A	.
.	4G	.	.
1F	4A	.	.
.	4G	4B	.
.	4A	4c	.
.	4B	4d	.
=47	=47	=47	=47
2E	2c	2e	0r
2D	1d	2f	.
1E	.	2g	.
.	2c#	2G	.
=48	=48	=48	=48
1D	2d	2A	1f
.	4D	2B-	.
.	4E	.	.
4D	4F	1A	2f
4E	4G	.	.
4F	2A	.	2f
4G	.	.	.
=49	=49	=49	=49
4A	4D	0r	1f
4G	4E	.	.
4A	4F	.	.
4B	4G	.	.
2c	2A	.	2e
[2d	2B-	.	2d
=50	=50	=50	=50
2d]	1A	0r	1e
2c#	.	.	.
2d	1D	.	1d
4D	.	.	.
4E	.	.	.
=51	=51	=51	=51
4F	0r	1c	4A
4G	.	.	4B
1A	.	.	4c
.	.	.	4d
.	.	2c	2e
[2F	.	2c	4A
.	.	.	4B
=52	=52	=52	=52
4F]	0r	1c	4c
4E	.	.	4d
4C	.	.	4e
4D	.	.	4f
2E	.	2B	2g
2F	.	2A	[2a
=53	=53	=53	=53
1E	1r	1B	2a]
.	.	.	2g#
1r	2r	[1A	1a
.	2F	.	.
=54	=54	=54	=54
1c	2F	1A]	2r
.	2F	.	2a
2c	1F	4A	2a
.	.	4B	.
2c	.	4c	2a
.	.	4d	.
=55	=55	=55	=55
1c	2E	4e	1g
.	.	4d	.
.	4C	4e	.
.	4D	4f	.
2B	2E	2g	2e
2A	2F	[2a	2d
=56	=56	=56	=56
1B	1E	2a]	1e
.	.	2g#	.
1A	1r	2a	2.c
.	.	[2e	.
.	.	.	4d
=57	=57	=57	=57
0r	1A	2e]	1e
.	.	2c	.
.	2F	2d	1r
.	2G	[2e	.
=58	=58	=58	=58
0r	2.A	4e]	0r
.	.	4d	.
.	.	4c	.
.	4G	4B	.
.	4F	2A	.
.	4E	.	.
.	2D	2B	.
=59	=59	=59	=59
1r	2E	1c	2r
.	1F	.	1a
2r	.	1A	.
2d	2D	.	2f
=60	=60	=60	=60
2B	2G	1r	2g
2c	2F	.	2.a
2.d	1D	2r	.
.	.	.	4g
.	.	[2d	4f
4c	.	.	4e
=61	=61	=61	=61
4B	0r	2d]	2d
4A	.	.	.
4G	.	2B	1g
4F	.	.	.
2E	.	2c	.
2D	.	[2d	2f
=62	=62	=62	=62
1A	0r	4d]	2.e
.	.	4c	.
.	.	1c	.
.	.	.	8d
.	.	.	8c
1G	.	.	1d
.	.	2B	.
=63	=63	=63	=63
0r	2r	2.e	2.c
.	1A	.	.
.	.	4d	4d
.	.	2c	2e
.	2F	2f	[2d
=64	=64	=64	=64
0r	2G	1e	2d]
.	2.A	.	4c
.	.	.	4B
.	.	2r	2c
.	4G	.	.
.	4F	2a	[2d
.	4E	.	.
=65	=65	=65	=65
2r	2D	2f	4d]
.	.	.	4c
2e	2E	2g	2B
2c	1F	1a	1A
2d	.	.	.
=66	=66	=66	=66
2.e	1E	1g	2r
.	.	.	1e
4d	.	.	.
4c	1r	2.e	.
4B	.	.	.
2A	.	.	2c
.	.	4f	.
=67	=67	=67	=67
2B	0r	1g	2d
2.c	.	.	2.e
.	.	2g	.
4B	.	.	4d
4A	.	[2a	4c
4G	.	.	4B
=68	=68	=68	=68
2F	2r	2a]	2A
2E	1e	4g	2B
.	.	4f	.
1A	.	2.e	1c
.	2c	.	.
.	.	4f	.
=69	=69	=69	=69
2G	1d	2g	2B
2F	.	1a	2A
1E	2.e	.	2B
.	.	2g#	[2e
.	4d	.	.
=70	=70	=70	=70
1A	4c	1a	2e]
.	4B	.	.
.	1A	.	2c
2F	.	1r	2d
2G	2B	.	[2e
=71	=71	=71	=71
2.A	1.c	2r	4e]
.	.	.	4d
.	.	1a	4c
4G	.	.	4B
4F	.	.	1A
4E	.	.	.
2D	2d	2f	.
=72	=72	=72	=72
1E	1B	1g	2e
.	.	.	2e
2.F	1A	2.a	2c
.	.	.	2c
4E	.	4g	.
=73	=73	=73	=73
1.D	2r	4f	2.d
.	.	4e	.
.	2A	2d	.
.	.	.	4c
.	2F	2f	4A
.	.	.	4B
2C	2G	[2e	[2c
=74	=74	=74	=74
1F	1.A	2e]	2c]
.	.	2d	4B
.	.	.	4A
[1E	.	[1e	[1B
.	4G#	.	.
.	4F#	.	.
=75	=75	=75	=75
1E_	2G#	1e_	2B]
.	2A	.	2c
1E_	[1G#	1e_	[1B
=76	=76	=76	=76
1E]	1G#]	1e]	1B]
*-	*-	*-	*-
!! Hosanna
**kern	**kern	**kern	**kern	**kern	**kern
*Ibass	*Itenor	*Itenor	*Icalto	*Icalto	*Icant
!Bassus	!Tenor 2	!Tenor 1	!Altus 2	!Altus 1	!Cantus
*clefF4	*clefGv2	*clefGv2	*clefG2	*clefG2	*clefG2
*k[]	*k[]	*k[]	*k[]	*k[]	*k[]
*A:aeo	*A:aeo	*A:aeo	*A:aeo	*A:aeo	*A:aeo
*M3/2	*M3/2	*M3/2	*M3/2	*M3/2	*M3/2
=77	=77	=77	=77	=77	=77
1r	1r	1r	2A	1r	2a
.	.	.	2c	.	2a
2r	2r	2r	2d	2r	2a
=78	=78	=78	=78	=78	=78
1r	1r	1r	1e	1r	2g
.	.	.	.	.	1cc
2r	2r	2r	2f	2r	.
=79	=79	=79	=79	=79	=79
1r	1r	2r	2g	1r	2b
.	.	2D	1f	.	1a
2r	2r	2F	.	2r	.
=80	=80	=80	=80	=80	=80
1r	1r	2G	1e	1r	2g
.	.	2A	.	.	1f
2r	2r	2B	2d	2r	.
=81	=81	=81	=81	=81	=81
1r	1r	2c	2e	2A	1e
.	.	2A	2a	2c	.
2r	2r	2B	[2g	2d	2r
=82	=82	=82	=82	=82	=82
1r	1r	2.c	4g]	1e	2e
.	.	.	4f	.	.
.	.	.	4e	.	2g
.	.	4B	4d	.	.
2r	2r	2A	2c	2f	2a
=83	=83	=83	=83	=83	=83
1r	1r	2G	2d	2g	2b
.	.	2A	2c	2e	2cc
2r	2r	[2D	[2d	[2f	2b
=84	=84	=84	=84	=84	=84
1r	1r	2D]	4d]	2f]	1a
.	.	.	4c	.	.
.	.	1E	1B	1e	.
2r	2r	.	.	.	2g#
=85	=85	=85	=85	=85	=85
2AA	2A	2A	2c	1e	1a
2C	2A	2r	2e	.	.
2D	2A	2r	2f	4d	2r
.	.	.	.	4c	.
=86	=86	=86	=86	=86	=86
1E	2G	1r	1e	2B	2e
.	1c	.	.	2e	2g
2F	.	2r	2c	2A	2a
=87	=87	=87	=87	=87	=87
2G	2B	2r	1r	2.d	2b
1F	1A	2D	.	.	2dd
.	.	.	.	8c	.
.	.	.	.	8B	.
.	.	2F	2r	2A	[2cc
=88	=88	=88	=88	=88	=88
2E	2G	2G	1r	2e	4cc]
.	.	.	.	.	4b
1D	1F	2A	.	1f	1dd
.	.	2B	2r	.	.
=89	=89	=89	=89	=89	=89
2C	2G	2.c	2r	1e	2g
2r	1c	.	2A	.	2a
.	.	4d	.	.	.
2r	.	2e	2c	2r	2g
=90	=90	=90	=90	=90	=90
1r	2B	2d	2d	1r	2g
.	1A	2.c	2e	.	1cc
2r	.	.	2f	2r	.
.	.	4A	.	.	.
=91	=91	=91	=91	=91	=91
1r	2G	1d	2g	1r	2b
.	1A	.	1e	.	1a
2r	.	2c#	.	2r	.
=92	=92	=92	=92	=92	=92
2D	1D	2d	2f	2d	2a
2F	.	2r	2a	2d	2a
2G	2r	2r	4g	2d	2b
.	.	.	4f	.	.
=93	=93	=93	=93	=93	=93
1A	2A	1r	2e	2c	1cc
.	2c	.	2A	1f	.
2B	2d	2r	2r	.	4b
.	.	.	.	.	4a
=94	=94	=94	=94	=94	=94
2.c	2.e	2r	1r	2e	2g
.	.	2A	.	4c	2a
4B	4d	.	.	4d	.
2A	2c	2c	2r	4e	2r
.	.	.	.	4f	.
=95	=95	=95	=95	=95	=95
2G	1B	2d	1r	1g	1r
2E	.	2e	.	.	.
2A	2A	2c	2r	2f	2r
=96	=96	=96	=96	=96	=96
2G	2B	2B	2e	1e	1r
1F	2c	1A	2a	.	.
.	2A	.	2a	2d	2r
=97	=97	=97	=97	=97	=97
1E	1r	2B	4g	[1.e	2e
.	.	.	4f	.	.
.	.	2E	4e	.	2g
.	.	.	4d	.	.
2r	2r	2A	2c	.	2a
=98	=98	=98	=98	=98	=98
2r	2E	2G	2B	1.e]	1b
2E	2G	2B	2e	.	.
2A	2A	2A	2c	.	2cc
=99	=99	=99	=99	=99	=99
1G	1B	2d	1g	2r	1dd
.	.	2.G	.	2d	.
2C	2c	.	2g	2e	2cc
.	.	4A	.	.	.
=100	=100	=100	=100	=100	=100
2GG	2d	2B	1g	2d	2b
2C	2.e	2E	.	2.c	2.cc
2AA	.	[2E	2c	.	.
.	4d	.	.	4d	4b
=101	=101	=101	=101	=101	=101
2AA	2c	2E]	2c	1e	1a
1E	1B	1E	2.e	.	.
.	.	.	.	2B	2g#
.	.	.	4d	.	.
=102	=102	=102	=102	=102	=102
1.AA	1.A	[1.E	4c	1.e	1.a
.	.	.	4B	.	.
.	.	.	1c	.	.
=103	=103	=103	=103	=103	=103
1.E	1.G#	1.E]	1.B	1.e	1.b
==	==	==	==	==	==
*-	*-	*-	*-	*-	*-
!!!CDT: 1525/^1526/-1594/2/2
!!!OCY: Italia
!!!AGN: Mass (Paraphrase)
!!!AST: renaissance, vocal
!!!ASW: Hymn
!!!PWK: Masses, Book 9
!!!RNB: Cadence finals: G,E,D
!!!YOR: Le Opere Complete, v. 25, p. 172
!!!YOO: Rome, Italy: Fratelli Scalera
!!!END: 1992//
!!!EED: John Miller
!!!YEC: Copyright 2000, John Miller
!!!YEN: United States of America
!!!YEM: Rights to all derivative electronic formats reserved.
!!!YEM: Refer to licensing agreement for further details.
!!!YEM: This file must be accompanied by the licensing agreement.
!!!YEM: A copy of the licensing agreement may be found at http://www.music-cog.ohio-state.edu/HumdrumDatabases/Palestrina/license.txt
!!!EMD: converted to Humdrum by Bret Aarden
